brandFactory_export/3.Masa/Wifi hogar home casa_3Masa.svg

<?xml version="1.0" encoding="UTF-8"?>
<svg width="24px" height="24px" viewBox="0 0 24 24" version="1.1" xmlns="http://www.w3.org/2000/svg" xmlns:xlink="http://www.w3.org/1999/xlink">
    <title>3.Masa/Wifi hogar home casa_3Masa</title>
    <g id="Symbols" stroke="none" stroke-width="1" fill="none" fill-rule="evenodd">
        <g id="3.Masa/Wifi-hogar-home-casa_3Masa" fill="#5CB615" fill-rule="nonzero">
            <path d="M18.6991597,11.8655462 C18.9983193,11.6134454 19.0352941,11.1663866 18.7798319,10.8672269 C18.7731092,10.8571429 18.7663866,10.8504202 18.7563025,10.8436975 C15.9865546,7.85546218 11.8722689,8.05714286 11.7445378,8.06722689 C7.33109244,8.11092437 4.96470588,10.5781513 4.86722689,10.6823529 C4.59831933,10.9647059 4.60840336,11.4117647 4.8907563,11.6806723 C4.90084034,11.6907563 4.90756303,11.697479 4.91764706,11.7042017 C5.22689076,11.9731092 5.69411765,11.9495798 5.97983193,11.6537815 C6,11.6336134 7.99327731,9.55294118 11.7915966,9.51260504 C11.8319328,9.5092437 15.3613445,9.3512605 17.6336134,11.8084034 C17.7848739,11.9697479 17.9865546,12.0504202 18.194958,12.0504202 C18.3764706,12.0504202 18.5546218,11.989916 18.6991597,11.8655462 Z M17.1831933,14.0605042 C17.4823529,13.8084034 17.5193277,13.3613445 17.2672269,13.0621849 C17.2605042,13.0521008 17.2537815,13.0453782 17.2436975,13.0352941 C15.1495798,10.7764706 11.8655462,10.8773109 11.7512605,10.887395 C8.41680672,10.9243697 6.4605042,12.9781513 6.37983193,13.0655462 C6.11428571,13.3478992 6.12436975,13.794958 6.41008403,14.0605042 C6.42016807,14.0672269 6.42689076,14.0773109 6.43697479,14.0840336 C6.57478992,14.205042 6.75630252,14.2722689 6.94117647,14.2722689 C7.14621849,14.2722689 7.34789916,14.194958 7.49579832,14.0369748 C7.51260504,14.0201681 9.11260504,12.3663866 11.7882353,12.3394958 C11.8218487,12.3394958 14.5109244,12.2621849 16.1210084,14.0033613 C16.4,14.302521 16.8739496,14.3294118 17.1831933,14.0605042 L17.1831933,14.0605042 Z M15.3915966,16.2487395 C15.6907563,15.9966387 15.7277311,15.5495798 15.4756303,15.2537815 C15.4689076,15.2436975 15.4588235,15.2369748 15.4521008,15.2268908 C14.0403361,13.7008403 11.8420168,13.7781513 11.7714286,13.7815126 C9.54285714,13.8084034 8.22857143,15.1865546 8.17478992,15.2436975 C7.90588235,15.5294118 7.92268908,15.9764706 8.20840336,16.2453782 L8.22857143,16.2655462 C8.3697479,16.3932773 8.55462185,16.4537815 8.73613445,16.4537815 C8.93781513,16.4537815 9.14285714,16.3764706 9.2907563,16.2184874 C9.33109244,16.1781513 10.2420168,15.2470588 11.8151261,15.2302521 C11.8352941,15.2302521 13.4117647,15.1932773 14.3361345,16.194958 C14.6151261,16.4907563 15.0789916,16.5142857 15.3915966,16.2487395 L15.3915966,16.2487395 Z M11.8756303,20.0336134 C12.7193277,20.0201681 13.5697479,19.4890756 13.5697479,18.3394958 C13.5697479,17.1966387 12.7193277,16.6655462 11.8151261,16.6420168 C11.8084034,16.6386555 11.7478992,16.6386555 11.7478992,16.6386555 C10.9042017,16.6453782 10.0537815,17.1731092 10.0537815,18.3327731 C10.0537815,19.4957983 10.907563,20.0201681 11.7512605,20.0336134 L11.8756303,20.0336134 Z M23.0554622,10.1277311 C23.6168067,10.6789916 23.7747899,11.4554622 23.4722689,12.1579832 C23.1495798,12.897479 22.3831933,13.3747899 21.512605,13.3747899 L20.907563,13.3747899 L20.907563,21.6941176 C20.907563,22.7596639 19.9630252,23.6235294 18.8,23.6235294 L4.68907563,23.6235294 C3.52605042,23.6235294 2.57815126,22.7563025 2.57815126,21.6907563 L2.57815126,13.3714286 L2.11092437,13.3714286 C1.24033613,13.3714286 0.47394958,12.8941176 0.151260504,12.1546218 C-0.151260504,11.4554622 0.00672268908,10.6789916 0.568067227,10.1243697 L10.2689076,0.588235294 C11.0621849,-0.194957983 12.5613445,-0.194957983 13.3579832,0.588235294 L23.0554622,10.1277311 L23.0554622,10.1277311 Z" id="Wifi-hogar-home-casa_3Masa"></path>
        </g>
    </g>
</svg>

<svg width="24" height="24" viewBox="0 0 24 24" xmlns="http://www.w3.org/2000/svg"><path d="M18.7 11.866a.705.705 0 00.056-1.022c-2.77-2.989-6.884-2.787-7.011-2.777-4.414.044-6.78 2.511-6.878 2.615a.706.706 0 00.024.999.773.773 0 001.09-.027c.019-.02 2.012-2.101 5.81-2.141.04-.004 3.57-.162 5.843 2.295a.761.761 0 00.561.242c.181 0 .36-.06.504-.184zm-1.517 2.195c.3-.253.336-.7.084-.999-.006-.01-.013-.017-.023-.027-2.094-2.259-5.378-2.158-5.493-2.148-3.334.037-5.29 2.091-5.371 2.179a.702.702 0 00.03.995c.01.006.017.016.027.023.138.121.32.188.504.188a.753.753 0 00.555-.235c.017-.017 1.617-1.67 4.292-1.698.034 0 2.723-.077 4.333 1.664a.77.77 0 001.062.058zm-1.791 2.188c.299-.252.336-.7.084-.995-.007-.01-.017-.017-.024-.027-1.412-1.526-3.61-1.449-3.68-1.445-2.23.026-3.543 1.405-3.597 1.462a.707.707 0 00.033 1.001l.02.02a.755.755 0 00.508.189.758.758 0 00.555-.236c.04-.04.951-.97 2.524-.988.02 0 1.597-.037 2.521.965a.767.767 0 001.056.054zm-3.516 3.785c.843-.014 1.694-.545 1.694-1.695 0-1.142-.85-1.673-1.755-1.697-.007-.003-.067-.003-.067-.003-.844.006-1.694.534-1.694 1.694 0 1.163.854 1.687 1.697 1.7h.125zm11.18-9.906c.56.551.719 1.327.416 2.03-.322.74-1.089 1.217-1.96 1.217h-.604v8.32c0 1.065-.945 1.929-2.108 1.929H4.69c-1.164 0-2.112-.868-2.112-1.933v-8.32h-.467c-.87 0-1.637-.477-1.96-1.216-.302-.7-.144-1.476.417-2.03l9.7-9.537c.794-.783 2.293-.783 3.09 0l9.697 9.54z" fill="#5CB615" fill-rule="nonzero"/></svg>
